icons/1_Primary/NearlyFreeSpeech.NET.svg

<svg xmlns="http://www.w3.org/2000/svg" width="1024" height="1024" fill="none">
   <g clip-path="url(#a)">
      <path fill="#71A372" d="M512 1024c282.77 0 512-229.23 512-512S794.77 0 512 0 0 229.23 0 512s229.23 512 512 512Z"/>
      <path fill="#fff" d="M377.36 296.56c-78.65 0-142.36 64-142.36 142.85v75.65c0 78.85 63.75 142.85 142.36 142.85H374L505.22 820V654.18l141.21 3.73h.21c78.65 0 142.36-64 142.36-142.85v-75.62c0-78.85-63.75-142.85-142.36-142.85H377.39l-.03-.03Zm-.68 31.59h269.95c61.61 0 110.8 49.32 110.8 111.29v75.62c0 61.93-49.11 111.24-110.71 111.29l-173.06-4.57v109.08L389 626.35h-11.64c-61.61 0-110.8-49.32-110.8-111.29v-75.65c0-61.73 48.8-110.89 110.13-111.26h-.01Zm185.11 86.34c-10.773 0-19.61 3.093-26.51 9.28A30.138 30.138 0 0 0 525 447.13a35.67 35.67 0 0 0 2.57 13.75 31.923 31.923 0 0 0 7.43 10.78c3.26 2.98 9.53 6.82 18.81 11.52 9.28 4.7 15.44 8.9 18.48 12.6a18.781 18.781 0 0 1 4.47 11.85c0 8.84-6.333 13.26-19 13.26-8.227 0-16.593-2.983-25.1-8.95l-8 19.3a55.5 55.5 0 0 0 30.75 8.76c13.033 0 23.417-3.177 31.15-9.53 7.733-6.353 11.627-14.443 11.68-24.27a37.567 37.567 0 0 0-2.82-14.83 33.234 33.234 0 0 0-8.2-11.68c-3.593-3.367-9.447-7.033-17.56-11-15.413-7.52-23.117-14.75-23.11-21.69a13.48 13.48 0 0 1 4.06-10.19c2.76-2.667 6.627-4 11.6-4 8.393 0 16.373 2.707 23.94 8.12l6.55-18.56c-6.573-5.247-16.873-7.87-30.9-7.87l-.01-.01Zm-243.49 2.07V538H339v-75.21l58.91 76.8h8.78v-123H386v73.24l-57.33-73.24H318.3v-.03Zm113.26 0v121.38h21.54v-55.51h42.67v-18.31h-42.68V435.7h58.41v-19.14h-80 .06Zm185.75 0V538H638v-75.21l58.91 76.8h8.78v-123H685v73.24l-57.33-73.24h-10.36v-.03Z"/>
   </g>
   <defs>
      <clipPath id="a">
         <path fill="#fff" d="M0 0h1024v1024H0z"/>
      </clipPath>
   </defs>
</svg>

<svg width="1024" height="1024" viewBox="0 0 1024 1024" fill="none" xmlns="http://www.w3.org/2000/svg">
<g clip-path="url(#clip0_2_2883)">
<path d="M512 1024C794.77 1024 1024 794.77 1024 512C1024 229.23 794.77 0 512 0C229.23 0 0 229.23 0 512C0 794.77 229.23 1024 512 1024Z" fill="#71A372"/>
<path d="M377.36 296.56C298.71 296.56 235 360.56 235 439.41V515.06C235 593.91 298.75 657.91 377.36 657.91H374L505.22 820V654.18L646.43 657.91H646.64C725.29 657.91 789 593.91 789 515.06V439.44C789 360.59 725.25 296.59 646.64 296.59H377.39L377.36 296.56ZM376.68 328.15H646.63C708.24 328.15 757.43 377.47 757.43 439.44V515.06C757.43 576.99 708.32 626.3 646.72 626.35L473.66 621.78V730.86L389 626.35H377.36C315.75 626.35 266.56 577.03 266.56 515.06V439.41C266.56 377.68 315.36 328.52 376.69 328.15H376.68ZM561.79 414.49C551.017 414.49 542.18 417.583 535.28 423.77C531.962 426.675 529.322 430.272 527.545 434.308C525.769 438.344 524.9 442.721 525 447.13C524.941 451.838 525.814 456.511 527.57 460.88C529.275 464.948 531.805 468.618 535 471.66C538.26 474.64 544.53 478.48 553.81 483.18C563.09 487.88 569.25 492.08 572.29 495.78C575.107 499.093 576.687 503.282 576.76 507.63C576.76 516.47 570.427 520.89 557.76 520.89C549.533 520.89 541.167 517.907 532.66 511.94L524.66 531.24C533.829 537.113 544.523 540.16 555.41 540C568.443 540 578.827 536.823 586.56 530.47C594.293 524.117 598.187 516.027 598.24 506.2C598.313 501.117 597.354 496.072 595.42 491.37C593.565 486.929 590.767 482.944 587.22 479.69C583.627 476.323 577.773 472.657 569.66 468.69C554.247 461.17 546.543 453.94 546.55 447C546.475 445.112 546.797 443.229 547.497 441.473C548.196 439.718 549.257 438.129 550.61 436.81C553.37 434.143 557.237 432.81 562.21 432.81C570.603 432.81 578.583 435.517 586.15 440.93L592.7 422.37C586.127 417.123 575.827 414.5 561.8 414.5L561.79 414.49ZM318.3 416.56V538H339V462.79L397.91 539.59H406.69V416.59H386V489.83L328.67 416.59H318.3V416.56ZM431.56 416.56V537.94H453.1V482.43H495.77V464.12H453.09V435.7H511.5V416.56H431.5H431.56ZM617.31 416.56V538H638V462.79L696.91 539.59H705.69V416.59H685V489.83L627.67 416.59H617.31V416.56Z" fill="white"/>
</g>
<defs>
<clipPath id="clip0_2_2883">
<rect width="1024" height="1024" fill="white"/>
</clipPath>
</defs>
</svg>
